assets/icons/refresh.svg

<svg xmlns="http://www.w3.org/2000/svg" viewBox="0 0 24 24" role="presentation" aria-hidden="true"><path fill-rule="evenodd" clip-rule="evenodd" d="M15.2088 6.52354C13.8997 5.93072 12.4313 5.78264 11.0294 6.10221C9.62753 6.42177 8.37018 7.19115 7.45031 8.2916C6.53047 9.392 5.9989 10.7626 5.93679 12.1928C5.91882 12.6066 5.56878 12.9275 5.15496 12.9095C4.74114 12.8916 4.42023 12.5415 4.4382 12.1277C4.51462 10.368 5.16868 8.6823 6.29944 7.32958C7.43016 5.97689 8.97489 5.03207 10.696 4.63973C12.4172 4.24739 14.22 4.42911 15.8276 5.15711C16.9435 5.66245 17.9226 6.41168 18.6969 7.34154V5.23679C18.6969 4.82258 19.0327 4.48679 19.4469 4.48679C19.8611 4.48679 20.1969 4.82258 20.1969 5.23679V9.60951C20.1969 10.0237 19.8611 10.3595 19.4469 10.3595H15.0594C14.6452 10.3595 14.3094 10.0237 14.3094 9.60951C14.3094 9.19529 14.6452 8.85951 15.0594 8.85951H17.9606C17.2834 7.84313 16.3314 7.03192 15.2088 6.52354ZM19.8519 12.1401C20.2656 12.1619 20.5832 12.5148 20.5615 12.9285C20.4691 14.6817 19.8035 16.3564 18.6668 17.6967C17.5302 19.0369 15.9849 19.9692 14.2674 20.3516C12.5499 20.734 10.7539 20.5457 9.15368 19.8153C8.04521 19.3093 7.0727 18.5624 6.30312 17.637V19.8125C6.30312 20.2267 5.96734 20.5625 5.55312 20.5625C5.13891 20.5625 4.80312 20.2267 4.80312 19.8125V15.4398C4.80312 15.0256 5.13891 14.6898 5.55312 14.6898H9.94062C10.3548 14.6898 10.6906 15.0256 10.6906 15.4398C10.6906 15.854 10.3548 16.1898 9.94062 16.1898H7.08775C7.7581 17.1694 8.68623 17.953 9.77654 18.4507C11.0796 19.0455 12.5424 19.199 13.9414 18.8875C15.3404 18.576 16.5981 17.8168 17.5228 16.7265C18.4475 15.6362 18.9885 14.2745 19.0635 12.8496C19.0853 12.436 19.4383 12.1183 19.8519 12.1401Z" fill="currentColor"/></svg>

<svg xmlns="http://www.w3.org/2000/svg" aria-hidden="true" viewBox="0 0 24 24"><path fill="currentColor" fill-rule="evenodd" d="M15.209 6.524a6.6 6.6 0 0 0-4.18-.422 6.57 6.57 0 0 0-3.579 2.19 6.52 6.52 0 0 0-1.513 3.9.75.75 0 1 1-1.499-.064A8.02 8.02 0 0 1 6.3 7.33a8.07 8.07 0 0 1 4.397-2.69 8.09 8.09 0 0 1 8 2.702V5.237a.75.75 0 0 1 1.5 0V9.61a.75.75 0 0 1-.75.75H15.06a.75.75 0 0 1 0-1.5h2.902a6.56 6.56 0 0 0-2.752-2.336m4.643 5.616a.75.75 0 0 1 .71.788 8.03 8.03 0 0 1-1.895 4.769 8.07 8.07 0 0 1-4.4 2.655 8.1 8.1 0 0 1-5.113-.537 8.06 8.06 0 0 1-2.85-2.178v2.175a.75.75 0 0 1-1.5 0V15.44a.75.75 0 0 1 .75-.75H9.94a.75.75 0 0 1 0 1.5H7.088a6.56 6.56 0 0 0 2.689 2.26 6.585 6.585 0 0 0 7.746-1.723 6.52 6.52 0 0 0 1.54-3.877.75.75 0 0 1 .789-.71" clip-rule="evenodd"/></svg>
